assets/icons/warning_colored.svg

<svg fill="none" height="36" viewBox="0 0 36 36" width="36" xmlns="http://www.w3.org/2000/svg"><g fill="#000"><path d="m0 27.4923c.0892969-.4085.130078-.836.28125-1.2207.246259-.6669.542653-1.3142.88664-1.9364 3.7125-6.4551 7.43391-12.9065 11.16421-19.35416 1.0336-1.79437 2.5151-2.92992 4.5703-3.33773 2.3035-.45774 5.0745.62297 6.3092 2.63179 1.3767 2.24086 2.6718 4.53235 3.9902 6.809 2.5936 4.4832 5.1841 8.9682 7.7716 13.455.5293.9091.8779 1.9118 1.0266 2.9532v1.0547c-.0238.065-.0426.1317-.0562.1996-.4001 3.252-3.0734 5.6904-6.3436 5.6989-7.7527.0201-15.5054.0201-23.25801 0-2.73586-.005-5.11313-1.7494-5.976565-4.3411-.170156-.5028-.246797-1.035-.365625-1.5574zm17.9648 4.0612c3.773 0 7.546.0141 11.3204-.0147.5946.0009 1.1838-.1129 1.7353-.3354 1.7901-.758 2.6936-3.0783 1.5117-5.0991-2.9531-5.047-5.8549-10.125-8.7806-15.1875-.9479-1.64037-1.8689-3.29763-2.8688-4.90568-.7305-1.17563-1.871-1.65938-3.2456-1.53-1.3001.12234-2.1684.86273-2.8055 1.96664-3.044 5.29174-6.09584 10.57874-9.15537 15.86104-.80649 1.3971-1.64391 2.7795-2.39695 4.2054-.76219 1.4428-.34243 3.2084.91406 4.2504.71226.5892 1.54687.7917 2.45039.7917z"/><path d="m19.8364 13.8813c-.1369 2.2551-.2738 4.5103-.4107 6.7654-.0323.5365-.0126 1.08-.0871 1.6102-.0436.323-.2037.619-.4503.8321-.2466.2132-.5626.3288-.8885.3252-.6792 0-1.2656-.4457-1.3415-1.1411-.1097-.964-.1407-1.9364-.2025-2.9053-.114-1.8113-.2047-3.624-.3418-5.4324-.1047-1.3859.8944-2.4455 2.1875-2.2612.401.0655.7688.2627 1.0452.5605s.4458.6793.4812 1.0841c.0127.187 0 .3747 0 .5625z"/><path d="m16.1635 26.486c.0051-.2427.0581-.4821.1558-.7044.0978-.2222.2385-.423.414-.5908s.3824-.2993.6088-.387.4679-.1299.7107-.1241c.9942.0183 1.7789.8634 1.7578 1.8984.0079.2487-.0349.4964-.1261.7279-.0911.2316-.2285.4421-.4038.6186-.1753.1766-.3848.3155-.6157.4083s-.4783.1374-.727.1312c-.2488-.0061-.4936-.063-.7196-.1672-.226-.1041-.4284-.2532-.5947-.4383s-.2931-.4021-.3726-.6379-.11-.4853-.0897-.7333z"/></g></svg>

<svg width="36" height="36" viewBox="0 0 36 36" fill="none" xmlns="http://www.w3.org/2000/svg">
<path d="M0 27.4923C0.0892969 27.0838 0.130078 26.6563 0.28125 26.2716C0.527509 25.6047 0.823903 24.9574 1.16789 24.3352C4.88039 17.8801 8.6018 11.4287 12.3321 4.98104C13.3657 3.18667 14.8472 2.05112 16.9024 1.64331C19.2059 1.18557 21.9769 2.26628 23.2116 4.2751C24.5883 6.51596 25.8834 8.80745 27.2018 11.0841C29.7954 15.5673 32.3859 20.0523 34.9734 24.5391C35.5027 25.4482 35.8513 26.4509 36 27.4923V28.547C35.9762 28.612 35.9574 28.6787 35.9438 28.7466C35.5437 31.9986 32.8704 34.437 29.6002 34.4455C21.8475 34.4656 14.0948 34.4656 6.34219 34.4455C3.60633 34.4405 1.22906 32.6961 0.365625 30.1044C0.195469 29.6016 0.118828 29.0694 0 28.547V27.4923ZM17.9648 31.5535C21.7378 31.5535 25.5108 31.5676 29.2852 31.5388C29.8798 31.5397 30.469 31.4259 31.0205 31.2034C32.8106 30.4454 33.7141 28.1251 32.5322 26.1043C29.5791 21.0573 26.6773 15.9793 23.7516 10.9168C22.8037 9.27643 21.8827 7.61917 20.8828 6.01112C20.1523 4.83549 19.0118 4.35174 17.6372 4.48112C16.3371 4.60346 15.4688 5.34385 14.8317 6.44776C11.7877 11.7395 8.73586 17.0265 5.67633 22.3088C4.86984 23.7059 4.03242 25.0883 3.27938 26.5142C2.51719 27.957 2.93695 29.7226 4.19344 30.7646C4.9057 31.3538 5.74031 31.5563 6.64383 31.5563L17.9648 31.5535Z" fill="black"/>
<path d="M19.8364 13.8813C19.6995 16.1364 19.5626 18.3916 19.4257 20.6467C19.3934 21.1832 19.4131 21.7267 19.3386 22.2569C19.295 22.5799 19.1349 22.8759 18.8883 23.089C18.6417 23.3022 18.3257 23.4178 17.9998 23.4142C17.3206 23.4142 16.7342 22.9685 16.6583 22.2731C16.5486 21.3091 16.5176 20.3367 16.4558 19.3678C16.3418 17.5565 16.2511 15.7438 16.114 13.9354C16.0093 12.5495 17.0084 11.4899 18.3015 11.6742C18.7025 11.7397 19.0703 11.9369 19.3467 12.2347C19.6231 12.5325 19.7925 12.914 19.8279 13.3188C19.8406 13.5058 19.8279 13.6935 19.8279 13.8813H19.8364Z" fill="black"/>
<path d="M16.1635 26.486C16.1686 26.2433 16.2216 26.0039 16.3193 25.7816C16.4171 25.5594 16.5578 25.3586 16.7333 25.1908C16.9088 25.023 17.1157 24.8915 17.3421 24.8038C17.5685 24.7161 17.81 24.6739 18.0528 24.6797C19.047 24.698 19.8317 25.5431 19.8106 26.5781C19.8185 26.8268 19.7757 27.0745 19.6845 27.306C19.5934 27.5376 19.456 27.7481 19.2807 27.9246C19.1054 28.1012 18.8959 28.2401 18.665 28.3329C18.4341 28.4257 18.1867 28.4703 17.938 28.4641C17.6892 28.458 17.4444 28.4011 17.2184 28.2969C16.9924 28.1928 16.79 28.0437 16.6237 27.8586C16.4574 27.6735 16.3306 27.4565 16.2511 27.2207C16.1716 26.9849 16.1411 26.7354 16.1614 26.4874L16.1635 26.486Z" fill="black"/>
</svg>
